X:1
T:IL BIANCO E DOLCE CIGNO
T:Jacques Arcadelt (c.1505-1568)
T:Giovanni Giudiccioni (1500-1541)
%%score 1 2 3 4
L:1/8
Q:1/4=120
M:4/4
K:G
V:1 treble nm="Soprano" snm="S."
V:2 treble nm="Alto" snm="A."
V:3 treble-8 nm="Tenor" snm="T."
V:4 bass nm="Basse" snm="B."
V:1
 G4 G4- | G2 G2 A2 A2 | B4 G2 G2 | A2 B2 c4 | B4 z2 G2 | G2 G2 A4 | =F4 z2 F2 | G2 G4 F2 | %8
w: Il~ bian\-|* co~~e~ dol ce~|ci gno~ can|tan do~ mo|re,~ Ed~|io~ pian gen|do~ giung'~|al~ fin~ del~|
 E2 E2 D4 | D4 z2 G2 | G2 G2 A4 | A4 z2 A2 | c2 B4 A2- | AG G4 F2 | G4 z2 G2 | G2 G2 A2 A2 | %16
w: vi ver~ mi|o,~ ed~|io~ pian gen|do~ giung'~|al~ fin~ del|* vi ver~ mi|o.~ Stran'~|e~ di ver sa~|
 B2 B2 z2 B2 | B2 A2 B2 c2 | B2 B2 z2 B2 | B2 A2 B2 c2 | B3 c dB c2- | cB B4 A2 | B8- | %23
w: sor te,~ Ch'ei~|mo re~ scon so|la to,~ ed~|io~ mo ro~ be|a\- * * * *||to.|
 !breath!B4 B4 | !breath!B2 B2 B2 B2 | c4 A4 | z2 A2 B2 A2 | G2 G2 F2 G2 | E2 E2 D4 | D4 F4 | %30
w: * Mor|te~ che~ nel~ mo|ri re,~|M'em pie~ di~|goi ia~ tut t'e~|di~ de si|re.~ Se~|
 F2 F2 G4- | G2 E2 G2 E2 | F2 F2 G4 | F8- | F4 z4 | z2 G2 c3 B | A2 G2 F2 A2 | AG G4 F2 | G8 | %39
w: nel~ mo rir,|* al tro~ do|lor~ non~ sen|to,||Di~ mil le~|mor te~?~il~ di~ sa|rei~ con ten\- *|to,~|
 z2 G2 c3 B | A2 G2 F2 A2 | AG G4 F2 | G8- | G8- | G8- | G8 |] %46
w: di~ mil le~|mor te~?~il~ di~ sa|rei~ con ten\- *|to.||||
V:2
 D4 E4- | E2 D2 E2 F2 | G3 F/E/ D2 E2 | ED G4 F2 | G4 D4 | D2 D2 =F4 | C4 =F4 | E2 D4 D2 | %8
w: Il~ bian\-|* co~e~ dol ce~|ci\- * * gno~ can|tan to~ mo\- *|re,~ Ed~|io~ pian gen|do~ giung'~|al~ fin~ del~|
 B,2 C2 A,4 | B,4 D4 | D2 D2 =F4 | =F4 F4 | G2 G4 F2 | E2 E2 D4 | B,4 z2 D2 | E3 D E2 F2 | %16
w: vi ver~ mi|o,~ ed~|io~ pian gen|do~ giung'~|al~ fin~ del~|vi ver~ mi|o.~ Stran'~|e~ di ver sa~|
 G2 G2 z2 G2- | G2 F4 E2 | F2 G2 F2 F2 | z2 F2 F2 E2 | F4 G2 A2 | F2 G2- GF E2- | E2 ^D^C D4 | %23
w: sor te,~ Ch'ei|* mo re~|scon so la to,~|ed~ io~ mo|ro~ be a\-|||
 !breath!E4 z2 G2 | !breath!G2 G2 G2 G2 | G4 F4 | z2 F2 F2 D2 | D2 C2 D2 B,2 | C3 B, A,4 | %29
w: to.~ Mor|te~ che~ nel~ mo|ri re,~|M'em pie~ di~|gio ia~ tut t'e~|di~ de si|
 B,4 z2 D2 | D2 D2 E4- | E2 C2 E2 E2 | D2 D4 ^C2 | D2 A,2 D3 C | B,2 A,2 G,2 D2 | G6 F2 | %36
w: re.~ Se~|nel~ mo rir,|* al tro~ do|lor~ non~ sen|to,~ Di~ mil le~|mor te~?~il~ di,~ di~|mil le~|
 E2 E2 D4 | z2 G,2 D3 C | B,3 A, G,2 D2 | G6 F2 | E2 E2 D4 | z2 G,2 D3 C | B,3 A, G,2 B,2 | %43
w: mor te~?~il~ di,~|di~ mil le~|mor te~?~il~ di,~ di~|mil le~|mor te~?~il~ di,~|di~ mil le~|mor te~?~il~ di~ sa|
 C3 D E3 D | C2 D2 E4 | D8 |] %46
w: rei * * *|* con ten|to.~|
V:3
 G4 c4- | c2 B2 c2 d2 | G3 A B2 c2 | c2 B2 A4 | G4 B4 | B2 B2 c4 | A4 A4 | c2 B4 A2- | AG G4 F2 | %9
w: Il~ bian\-|* co~~e~ dol ce~|ci\- * gno~ can|tan do~ mo|re,~ Ed~|io~ pian gen|do~ giung'~|al~ fin~ del|* vi ver~ mi|
 G4 B4 | B2 B2 c4 | c4 d4 | e2 d4 d2 | B2 c2 A4 | G4 z2 G2 | c3 B c2 d2- | dcBA G2 G2 | %17
w: o,~ ed~|io~ pian gen|do~ giung'~|al~ fin~ del~|vi ver~ mi|o.~ Stran'~|e~ di ver sa|* * * * sor te,~|
 z2 d2 d2 c2 | d2 e2 d2 d2 | z2 d2 d2 c2 | d4 z2 e2 | e2 d2 e2 e2 | f8 | !breath!g4 z2 e2 | %24
w: Ch'ei~ mo re~|scon so la to,~|ed~ io~ mo|ro,~ ed~|io~ mo ro~ be|a|to.~ Mor|
 !breath!e2 e2 d2 d2 | e4 d4 | z2 d2 d2 d2 | B2 G2 A2 G2 | A2 G4 F2 | G4 A4 | A2 A2 c4- | %31
w: te~ che~ nel~ mo|ri re,~|M'em pie~ di~|gio ia~ tut t'e~|di~ de si|re.~ Se~|nel~ mo rir,|
 c2 G2 c3 B | A2 d2 G4 | A4 z2 A2 | d3 c B3 A | G2 B2 e3 d | c3 B A2 d2 | B2 c2 A2 AA | d3 c B3 A | %39
w: * al tro~ do|lor~ non~ sen|to,~ Di~|mil le~ mor te~?~il~|di,~ di~ mil le~|mor te~?~il~ di~ sa|rei~ con ten to,~ di~|mil le~ mor te~?~il~|
 G2 B2 e3 d | c3 B A2 d2 | B2 c2 A4 | G2 d2 g3 f | e3 d c3 d | e2 d2 c4 | B8 |] %46
w: di,~ di~ mil le~|mor te~?~il~ di~ sa|rei~ con ten|to,~ di~ mil le~|mor te~?~il~ di~ sa|rei~ con ten|to.~|
V:4
 z8 | z8 | z8 | z8 | z4 G,4 | G,2 G,2 =F,4 | =F,4 D,4 | C,2 G,4 D,2 | E,2 C,2 D,4 | G,,4 G,4 | %10
w: ||||Ed~|io~ pian gen|do~ giung'~|al~ fin~ del~|vi ver~ mi|o,~ ed~|
 G,2 G,2 =F,4 | =F,4 D,4 | C,2 G,4 D,2 | E,2 C,2 D,4 | G,,8 | z4 z2 D,2 | G,3 F, E,2 E,2 | %17
w: io~ pian gen|do~ giung'~|al~ fin~ del~|vi ver~ mi|o.~|Stran'~|e~ di ver sa~|
 D,2 D,2 z4 | z8 | z8 | z2 B,2 B,2 A,2 | B,2 B,2 C4 | B,8 | !breath!E,4 z2 E,2 | %24
w: sor te,~|||Ed~ io~ mo|ro~ be a\-||to.~ Mor|
 !breath!E,2 E,2 G,2 G,2 | C,4 D,4 | z2 D,2 D,2 D,2 | E,2 E,2 D,2 E,2 | C,2 C,2 D,4 | G,,4 D,4 | %30
w: te~ che~ nel~ mo|ri re,~|M'em pie~ di~|gio ia~ tut t'e~|di~ de si|re.~ Se~|
 D,2 D,2 C,4- | C,2 C,2 C,2 C,2 | D,2 D,2 E,4 | D,8 | z2 D,2 G,3 F, | E,3 D, C,4- | C,4 D,4 | %37
w: nel~ mo rir,|* al tro~ do|lor~ non~ sen|to,~|Di~ mil le~|mor te~?~il~ di|* sa|
 E,2 C,2 D,4 | G,,2 G,,2 G,3 F, | E,3 D, C,4- | C,4 D,4 | E,2 C,2 D,2 D,D, | G,3 F, E,3 D, | %43
w: rei~ con ten|to,~ di~ mil le~|mor te~?~il~ di|* sa|rei~ con ten to,~ di~|mil le~ mor te~?~il~|
 C,4 z2 C,2 | C,2 B,,2 C,4 | G,,8 |] %46
w: di~ sa|rei~ con ten|to.~|

